flaticon/interaction/cloud-computing-15.svg

<svg xmlns="http://www.w3.org/2000/svg" width="32" height="32" viewBox="0 0 24 24">
    <path d="M17.28125 17.609375C17.0625 17.566406 16.851562 17.703125 16.808594 17.921875 16.359375 20.121094 14.628906 21.601562 12.5 21.601562 10.488281 21.601562 8.722656 20.28125 8.121094 18.398438L10 18.398438 10 17.601562 6.800781 17.601562 6.800781 20.800781 7.601562 20.800781 7.601562 19.261719C8.46875 21.132812 10.367188 22.398438 12.5 22.398438 15.019531 22.398438 17.066406 20.664062 17.59375 18.078125 17.636719 17.863281 17.496094 17.652344 17.28125 17.609375zM17.199219 14.523438C16.300781 12.742188 14.519531 11.601562 12.5 11.601562 10.054688 11.601562 7.882812 13.199219 7.214844 15.488281 7.15625 15.699219 7.277344 15.921875 7.488281 15.984375 7.699219 16.046875 7.921875 15.921875 7.984375 15.710938 8.542969 13.792969 10.441406 12.398438 12.5 12.398438 14.324219 12.398438 15.925781 13.507812 16.632812 15.199219L14.800781 15.199219 14.800781 16 18 16 18 12.800781 17.199219 12.800781zM17.199219 14.523438"/>
    <path d="M 20.390625 8.078125 C 20.179688 4.476562 17.210938 1.601562 13.632812 1.601562 C 11.460938 1.601562 9.359375 2.664062 8.054688 4.402344 C 8.027344 4.386719 7.992188 4.375 7.964844 4.363281 C 7.882812 4.324219 7.804688 4.289062 7.722656 4.253906 C 7.675781 4.238281 7.628906 4.21875 7.585938 4.203125 C 7.503906 4.175781 7.421875 4.152344 7.335938 4.128906 C 7.292969 4.117188 7.246094 4.101562 7.199219 4.09375 C 7.109375 4.070312 7.015625 4.054688 6.925781 4.042969 C 6.882812 4.035156 6.84375 4.027344 6.804688 4.023438 C 6.671875 4.007812 6.535156 4 6.398438 4 C 4.414062 4 2.800781 5.613281 2.800781 7.601562 C 2.800781 7.652344 2.804688 7.703125 2.808594 7.753906 C 1.144531 8.660156 0 10.558594 0 12.460938 C 0 15.292969 2.304688 17.601562 5.136719 17.601562 C 5.359375 17.601562 5.539062 17.421875 5.539062 17.199219 C 5.539062 16.980469 5.359375 16.800781 5.136719 16.800781 C 2.746094 16.800781 0.800781 14.855469 0.800781 12.460938 C 0.800781 10.800781 1.882812 9.074219 3.375 8.359375 L 3.601562 8.253906 L 3.601562 8 C 3.601562 7.953125 3.601562 7.902344 3.605469 7.855469 L 3.609375 7.78125 L 3.605469 7.703125 C 3.601562 7.667969 3.601562 7.632812 3.601562 7.601562 C 3.601562 6.054688 4.855469 4.800781 6.398438 4.800781 C 6.523438 4.800781 6.644531 4.8125 6.765625 4.828125 C 6.796875 4.832031 6.828125 4.835938 6.859375 4.839844 C 6.96875 4.859375 7.070312 4.882812 7.175781 4.910156 C 7.191406 4.914062 7.203125 4.917969 7.21875 4.921875 C 7.332031 4.957031 7.441406 5 7.550781 5.050781 C 7.582031 5.0625 7.609375 5.078125 7.636719 5.089844 C 7.730469 5.140625 7.824219 5.191406 7.917969 5.25 C 8.6875 5.75 9.199219 6.613281 9.199219 7.601562 C 9.199219 7.820312 9.378906 8 9.601562 8 C 9.820312 8 10 7.820312 10 7.601562 C 10 6.5 9.5 5.511719 8.71875 4.851562 C 9.867188 3.351562 11.753906 2.398438 13.632812 2.398438 C 16.730469 2.398438 19.304688 4.855469 19.574219 7.957031 C 19.164062 7.925781 18.550781 7.910156 17.941406 8.003906 C 17.722656 8.039062 17.570312 8.242188 17.605469 8.460938 C 17.636719 8.660156 17.804688 8.800781 18 8.800781 C 18.019531 8.800781 18.039062 8.796875 18.058594 8.796875 C 18.953125 8.660156 19.878906 8.789062 19.933594 8.792969 C 21.796875 9.148438 23.199219 10.863281 23.199219 12.789062 C 23.199219 15 21.402344 16.800781 19.1875 16.800781 C 18.96875 16.800781 18.789062 16.980469 18.789062 17.199219 C 18.789062 17.421875 18.96875 17.601562 19.1875 17.601562 C 21.839844 17.601562 24 15.441406 24 12.789062 C 24 10.59375 22.46875 8.625 20.390625 8.078125 Z M 20.390625 8.078125"/>
</svg>

<svg xmlns="http://www.w3.org/2000/svg" width="32" height="32" viewBox="0 0 24 24">
    <path d="M17.281 17.61a.399.399 0 0 0-.472.312c-.45 2.2-2.18 3.68-4.309 3.68a4.612 4.612 0 0 1-4.379-3.204H10v-.796H6.8V20.8h.802v-1.54a5.417 5.417 0 0 0 4.898 3.137c2.52 0 4.566-1.734 5.094-4.32a.4.4 0 0 0-.313-.469zm0 0M17.2 14.523c-.9-1.78-2.68-2.921-4.7-2.921-2.445 0-4.617 1.597-5.285 3.886a.405.405 0 0 0 .273.496.402.402 0 0 0 .496-.273c.559-1.918 2.457-3.313 4.516-3.313 1.824 0 3.426 1.11 4.133 2.801H14.8V16H18v-3.2h-.8zm0 0"/>
    <path d="M20.39 8.078c-.21-3.601-3.18-6.476-6.757-6.476-2.172 0-4.274 1.062-5.578 2.8-.028-.015-.063-.027-.09-.039a6.613 6.613 0 0 0-.242-.11c-.047-.015-.094-.034-.137-.05a4.67 4.67 0 0 0-.25-.074c-.043-.012-.09-.027-.137-.035a2.24 2.24 0 0 0-.273-.051c-.043-.008-.082-.016-.121-.02A3.602 3.602 0 0 0 2.8 7.601c0 .051.004.102.008.153C1.145 8.66 0 10.559 0 12.46a5.146 5.146 0 0 0 5.137 5.14.401.401 0 0 0 0-.8A4.342 4.342 0 0 1 .8 12.46c0-1.66 1.082-3.387 2.574-4.102l.227-.105V8c0-.047 0-.098.003-.145l.004-.074-.004-.078c-.003-.035-.003-.07-.003-.101A2.8 2.8 0 0 1 6.398 4.8c.125 0 .247.011.368.027l.093.012c.11.02.211.043.317.07l.043.012c.113.035.222.078.332.129.031.011.058.027.086.039a2.799 2.799 0 0 1 1.562 2.512.401.401 0 0 0 .801 0c0-1.102-.5-2.09-1.281-2.75 1.148-1.5 3.035-2.454 4.914-2.454 3.097 0 5.672 2.457 5.941 5.559a7.418 7.418 0 0 0-1.633.047A.401.401 0 0 0 18 8.8c.02 0 .04-.004.059-.004.894-.137 1.82-.008 1.875-.004 1.863.355 3.265 2.07 3.265 3.996a4.015 4.015 0 0 1-4.012 4.012.4.4 0 0 0 0 .8A4.82 4.82 0 0 0 24 12.79c0-2.195-1.531-4.164-3.61-4.71zm0 0"/>
</svg>
